X:1
T:Title
%%score { ( 1 4 ) | ( 2 3 ) }
L:1/8
M:4/4
K:Bb
V:1 treble nm="Grand Piano"
V:4 treble 
V:2 bass 
V:3 bass 
V:1
 z4 z2[Q:1/4=100] [DF]2 | [EG]3 [FA] [GB]2 [EG]2 | [EG]4 [DF]2 [DF]2 | [FB]4 [FB]3 c | d6 [DF]2 | %5
 [EG]3 [FA] [GB]2 [FB]2 | [=Ed]4 [Ec]2 [Ec]2 | c6 F2 | c4 c2 d2 | e4 d2 [Fc]2 | [FB]4 [GB]3 [EG] | %11
 [DF]6 [DB]2 | B4 B2 B2 | [Ec]4 [CEG]2 [CEA]2 |[M:3/4] [B,DB]6 |[M:1/4] F2 | %16
[M:4/4] [Fd]3 [Ge] [Fd]2 [Ec]2 | z4 B2 z2 | G3 A [B,GB]2 [B,EG]2 | [B,DF]6 [DB]2 | c3 B B2 G2 | %21
 [DF]2 [DB]2 [Fd]2 [Ge]2 | d4 c3 c |[M:3/4] [DB]6 |] %24
V:2
 z4 z2 [B,,B,]2 | [E,B,]4 [E,B,]2 [E,B,]2 | [B,,B,]4 [B,,B,]2 [B,,B,]2 | %3
 [D,B,]4 [D,B,]3[K:treble] [F,A,F] | [B,F]6[K:bass] [B,,B,]2 | [E,B,]4 [E,B,]2 [D,B,]2 | %6
 [C,B,]4 [C,A,]2 [C,G,]2 | [F,A,F]6 [F,A,]2 | [F,A,F]4 [F,A,F]2 [F,B,F]2 | %9
 [F,CF]4 [F,B,F]2 [E,A,]2 | [D,B,]4 [E,B,]3 [E,B,] | [B,,B,]6 [B,,_A,]2 | %12
 [E,G,E]4 [E,G,E]2 [E,G,E]2 | G,2 C2 F,2 F,2 |[M:3/4] B,,6 |[M:1/4] F,2 | %16
[M:4/4] [B,,B,]4 [B,,B,]2 [B,,B,]2 | [B,,B,]4 [D,B,]4 | E3 F E,2 E,2 | B,,6 [B,,_A,]2 | %20
 [E,G,E]4 [E,G,E]2 [E,B,E]2 | z4 B,4 | [F,B,F]4 [F,A,F]3 [F,A,E] |[M:3/4] [B,,B,]6 |] %24
V:3
 x8 | x8 | x8 | x7[K:treble] x | x6[K:bass] x2 | x8 | x8 | x8 | x8 | x8 | x8 | x8 | x8 | C,4 z4 | %14
[M:3/4] x6 |[M:1/4] x2 |[M:4/4] x8 | x8 | [E,B,]4 z4 | x8 | x8 | [B,,B,]2 [B,,B,]2 B,,2 E,2 | x8 | %23
[M:3/4] x6 |] %24
V:4
 x8 | x8 | x8 | x8 | x8 | x8 | x8 | x8 | x8 | x8 | x8 | x8 | x8 | x8 |[M:3/4] x6 |[M:1/4] x2 | %16
[M:4/4] x8 | [DB]4 F2- [FA]2 | x8 | x8 | x8 | x8 | x8 |[M:3/4] x6 |] %24

